icons/extensions/exe.svg

<?xml version="1.0" encoding="UTF-8"?>
<svg width="42px" height="42px" viewBox="0 0 42 42" version="1.1" xmlns="http://www.w3.org/2000/svg" xmlns:xlink="http://www.w3.org/1999/xlink">
    <!-- Generator: Sketch 44.1 (41455) - http://www.bohemiancoding.com/sketch -->
    <desc>Created with Sketch.</desc>
    <defs></defs>
    <g id="扩展名-(icons/extensions-5-10)" stroke="none" stroke-width="1" fill="none" fill-rule="evenodd">
        <g id="EXE">
            <path d="M6,11.0049466 C6,9.89764516 6.88976324,9 8.00359486,9 L30.004543,9 C30.5543187,9 31.3127724,9.31277239 31.7057732,9.70577316 L35.2942268,13.2942268 C35.6840146,13.6840146 36,14.4509254 36,14.9947712 L36,31.0025781 C36,32.1057238 35.1021596,33 34.008383,33 L7.99161703,33 C6.89167732,33 6,32.1029738 6,30.9950534 L6,11.0049466 Z" id="Mask" fill="#3EAEDC"></path>
            <path d="M13,20.2532787 L13,17.0423318 L13,17.0423318 C13,16.651951 13.2817578,16.3185761 13.6666795,16.253519 L13.6666795,16.253519 L19.272997,15.3059723 L19.272997,20.2532787 L13,20.2532787 Z M13,21.7072847 L13,24.9576682 C13,25.348049 13.2817578,25.6814239 13.6666795,25.746481 L13.6666795,25.746481 L19.272997,26.6940277 L19.272997,21.7072847 L13,21.7072847 Z M27,20.2532787 L27,14.9465571 C27,14.9018825 26.9962579,14.8572865 26.9888128,14.8132366 C26.9151819,14.3775874 26.5023288,14.0841134 26.0666795,14.1577443 L26.0666795,14.1577443 L20.727003,15.0602249 L20.727003,20.2532787 L27,20.2532787 Z M27,21.7072847 L27,27.0534429 L27,27.0534429 C27,27.4952707 26.6418278,27.8534429 26.2,27.8534429 C26.1553254,27.8534429 26.1107294,27.8497007 26.0666795,27.8422557 L20.727003,26.9397751 L20.727003,21.7072847 L27,21.7072847 Z" id="Combined-Shape" fill="#FFFFFF"></path>
        </g>
    </g>
</svg>

<svg viewBox="0 0 42 42" xmlns="http://www.w3.org/2000/svg"><g fill="none" fill-rule="evenodd"><path d="M6 11.005A2 2 0 0 1 8.004 9h22c.55 0 1.309.313 1.702.706l3.588 3.588c.39.39.706 1.157.706 1.7v16.009A1.998 1.998 0 0 1 34.008 33H7.992C6.892 33 6 32.103 6 30.995v-19.99z" fill="#3EAEDC"/><path d="M13 20.253v-3.21a.8.8 0 0 1 .667-.79l5.606-.947v4.947H13zm0 1.454v3.25a.8.8 0 0 0 .667.79l5.606.947v-4.987H13zm14-1.454v-5.306a.8.8 0 0 0-.933-.79l-5.34.903v5.193H27zm0 1.454v5.346a.8.8 0 0 1-.933.79l-5.34-.903v-5.233H27z" fill="#FFF"/></g></svg>
